X:50
T:Polska fr{\aa}n Sm{\aa}land
R:sl\"angpolska
H:jfr #234
A:Sm{\aa}land
B:SvL Sk 305, ur Johan Magnus Theorins notbok fr{\aa}n V\"axj\"o
Z:id:hn-sp-50
M:3/4
L:1/16
K:Bm
B4 A4 B4 | d2f2 e2dc c2d2 | B2B2 A2A2 B2B2 | d2f2 e2dc d4 |
F2GA B2AB c2Bc | d2cd e2cB A2F2 | F2GA B2AB c2Bc | d2cd e2cB A2F2 |
F2GA B2c2 d2B2 | c2BA B8 :|
K:F#m
|: f4 e4 f4 | g2a2 b2ag g2a2 | f2f2 e2e2 f2f2 | g2a2 b2ag a4 |
c2de f2ef g2fg | a2ga bagf e2c2 | c2de f2ef g2fg | a2ga bagf e2c2 |
c2de f2g2 a2f2 | g2fe f8 :|
<end>
<start>
